components/TopBar/img/tiktok.svg

<svg xmlns="http://www.w3.org/2000/svg" viewBox="0 0 2859 3333" shape-rendering="geometricPrecision" text-rendering="geometricPrecision" image-rendering="optimizeQuality" fill-rule="evenodd" clip-rule="evenodd"><path d="M2081 0c55 473 319 755 778 785v532c-266 26-499-61-770-225v995c0 1264-1378 1659-1932 753-356-583-138-1606 1004-1647v561c-87 14-180 36-265 65-254 86-398 247-358 531 77 544 1075 705 992-358V1h551z"/></svg>

<?xml version="1.0" encoding="UTF-8" standalone="no"?>
<!DOCTYPE svg PUBLIC "-//W3C//DTD SVG 1.1//EN" "http://www.w3.org/Graphics/SVG/1.1/DTD/svg11.dtd">
<svg width="100%" height="100%" viewBox="0 0 2859 3333" version="1.1" xmlns="http://www.w3.org/2000/svg" xmlns:xlink="http://www.w3.org/1999/xlink" xml:space="preserve" xmlns:serif="http://www.serif.com/" style="fill-rule:evenodd;clip-rule:evenodd;stroke-linejoin:round;stroke-miterlimit:2;">
    <path d="M2081,0C2136,473 2400,755 2859,785L2859,1317C2593,1343 2360,1256 2089,1092L2089,2087C2089,3351 711,3746 157,2840C-199,2257 19,1234 1161,1193L1161,1754C1074,1768 981,1790 896,1819C642,1905 498,2066 538,2350C615,2894 1613,3055 1530,1992L1530,1L2081,1L2081,0Z" style="fill:rgb(255,144,211);"/>
</svg>
